!!!SOCIAL_FUNCTION:	begging dance songs
!!!PDT:	1913
!!!OTL: No_118_Song_of_Thanks_for_Food.krn
!!!REG: Great_Lakes
!!!LANG: Non-Tone
!!!LING_GROUP: Algonquin
**kern	**kern
*staff2	*staff1
=1-	=1-
*clefF4	*clefF4
*k[b-e-a-d-]	*k[b-e-a-d-]
*M2/4	*M2/4
12GG^/	4e-\
12r	.
12GG/	.
12GG^/	16c\LK
.	8.c\J
12r	.
12GG/	.
=2	=2
2r	4e-\
.	16c\LK
.	8.c\J
=3	=3
2r	2c\
=4||	=4||
*M3/4	*M3/4
2.r	4..c\
.	16A-\
.	4A-\
=5	=5
2.r	4..c\
.	16A-\
.	4A-\
=6	=6
2.r	8F\L
.	8A-\J
.	4E-\
.	4C/
=7||	=7||
*M2/4	*M2/4
2r	4E-\
.	16C/LK
.	8.C/J
=8	=8
2r	2C/
=9	=9
2r	2C/
==	==
*-	*-
